src/assets/flags/mz.svg

<?xml version="1.0" encoding="UTF-8"?>
<svg xmlns="http://www.w3.org/2000/svg" xmlns:xlink="http://www.w3.org/1999/xlink" width="25px" height="px" viewBox="0 0 25 19" version="1.1">
<g id="surface1">
<path style=" stroke:none;fill-rule:evenodd;fill:rgb(0%,60.392159%,0%);fill-opacity:1;" d="M 0 0 L 28.125 0 L 28.125 5.9375 L 0 5.9375 Z M 0 0 "/>
<path style=" stroke:none;fill-rule:evenodd;fill:rgb(100%,100%,100%);fill-opacity:1;" d="M 0 5.9375 L 28.125 5.9375 L 28.125 6.53125 L 0 6.53125 Z M 0 5.9375 "/>
<path style=" stroke:none;fill-rule:evenodd;fill:rgb(0%,0%,0.392157%);fill-opacity:1;" d="M 0 6.53125 L 28.125 6.53125 L 28.125 12.46875 L 0 12.46875 Z M 0 6.53125 "/>
<path style=" stroke:none;fill-rule:evenodd;fill:rgb(100%,100%,100%);fill-opacity:1;" d="M 0 12.46875 L 28.125 12.46875 L 28.125 13.0625 L 0 13.0625 Z M 0 12.46875 "/>
<path style=" stroke:none;fill-rule:evenodd;fill:rgb(100%,79.215688%,0%);fill-opacity:1;" d="M 0 13.0625 L 28.125 13.0625 L 28.125 19 L 0 19 Z M 0 13.0625 "/>
<path style=" stroke:none;fill-rule:evenodd;fill:rgb(100%,0%,0%);fill-opacity:1;" d="M 0 0 L 0 19 L 12.304688 9.5 Z M 0 0 "/>
<path style=" stroke:none;fill-rule:evenodd;fill:rgb(100%,79.215688%,0%);fill-opacity:1;" d="M 7.269531 12.359375 L 5.394531 10.964844 L 3.519531 12.359375 L 4.25 10.121094 L 2.363281 8.742188 L 4.6875 8.75 L 5.394531 6.507812 L 6.105469 8.753906 L 8.429688 8.742188 L 6.542969 10.121094 Z M 7.269531 12.359375 "/>
<path style="fill-rule:evenodd;fill:rgb(100%,100%,100%);fill-opacity:1;stroke-width:1.1;stroke-linecap:round;stroke-linejoin:round;stroke:rgb(0%,0%,0%);stroke-opacity:1;stroke-miterlimit:4;" d="M 102.826667 290.947368 L 139.84 290.947368 C 142.826667 294.210526 149.333333 295.578947 155.626667 290.947368 C 167.253333 284.526316 189.653333 290.947368 189.653333 290.947368 L 194.026667 286.210526 L 183.253333 250.947368 L 179.413333 246.842105 C 179.413333 246.842105 171.093333 241.789474 155.413333 243.473684 C 139.733333 245.157895 134.186667 242.947368 134.186667 242.947368 C 134.186667 242.947368 120.533333 244.631579 116.586667 246.631579 L 112.213333 250.947368 Z M 102.826667 290.947368 " transform="matrix(0.0366211,0,0,0.0371094,0,0)"/>
<path style="fill:none;stroke-width:1.1;stroke-linecap:round;stroke-linejoin:round;stroke:rgb(0%,0%,0%);stroke-opacity:1;stroke-miterlimit:4;" d="M 110.293333 281.789474 C 110.293333 281.789474 145.493333 277.368421 155.733333 290.947368 C 149.973333 294.947368 144.853333 295.157895 139.52 291.157895 C 140.266667 289.684211 152.106667 277.368421 182.186667 281.473684 " transform="matrix(0.0366211,0,0,0.0371094,0,0)"/>
<path style="fill:none;stroke-width:1.2;stroke-linecap:butt;stroke-linejoin:miter;stroke:rgb(0%,0%,0%);stroke-opacity:1;stroke-miterlimit:4;" d="M 148.053333 246.631579 L 147.733333 285.368421 M 179.413333 247.052632 L 186.026667 278 " transform="matrix(0.0366211,0,0,0.0371094,0,0)"/>
<path style="fill:none;stroke-width:1.1;stroke-linecap:round;stroke-linejoin:round;stroke:rgb(0%,0%,0%);stroke-opacity:1;stroke-miterlimit:4;" d="M 117.013333 246.631579 L 113.28 262.631579 " transform="matrix(0.0366211,0,0,0.0371094,0,0)"/>
<path style="fill-rule:evenodd;fill:rgb(0%,0%,0%);fill-opacity:1;stroke-width:1.1;stroke-linecap:round;stroke-linejoin:round;stroke:rgb(0%,0%,0%);stroke-opacity:1;stroke-miterlimit:4;" d="M 78.933333 295.052632 L 87.466667 305.263158 C 88.533333 305.894737 89.493333 305.894737 90.453333 305.263158 L 103.253333 289.894737 L 108.586667 283.157895 C 109.44 282.105263 109.76 281.157895 109.653333 280.210526 L 120 270.947368 L 122.24 271.052632 C 121.173333 270.947368 120.533333 270.421053 121.173333 269.263158 L 123.626667 267.473684 L 125.44 269.789474 C 125.44 269.789474 122.773333 273.157895 122.453333 273.157895 L 119.68 273.157895 L 114.346667 278.105263 L 116.693333 280.105263 L 120.213333 289.894737 L 124.586667 286.842105 L 121.813333 276.842105 L 127.893333 270.105263 L 125.653333 266.526316 L 127.253333 264.526316 C 127.253333 264.526316 148.48 277.894737 156.8 274.315789 C 157.013333 274.315789 157.333333 264.736842 157.333333 264.736842 C 157.333333 264.736842 135.146667 262.421053 134.613333 258 C 134.08 253.578947 139.626667 252.947368 139.626667 252.947368 L 137.173333 249.789474 L 137.706667 248 L 141.653333 252.842105 L 150.293333 245.368421 L 201.813333 304 C 204.586667 302.947368 205.226667 302.210526 205.44 299.368421 L 154.986667 241.473684 L 158.826667 237.368421 C 159.573333 236.526316 159.786667 236.210526 159.786667 234.842105 L 165.76 229.684211 C 167.36 230.210526 168.746667 231.263158 169.6 232.736842 L 186.026667 218.947368 C 186.453333 219.368421 187.733333 219.789474 188.586667 219.368421 L 215.466667 193.473684 L 186.24 214.210526 L 185.173333 213.473684 C 185.173333 212.631579 186.24 212.526316 185.173333 210.947368 C 184 209.473684 182.293333 212.210526 182.08 212.210526 C 181.866667 212.210526 177.813333 210.842105 176.853333 209.052632 L 176.746667 213.684211 L 169.173333 220.736842 L 163.52 220.421053 L 155.306667 228.421053 L 154.346667 231.368421 L 155.626667 234.105263 C 155.626667 234.105263 151.253333 237.894737 151.253333 237.684211 C 151.253333 237.368421 150.293333 236.526316 150.186667 236.421053 L 154.026667 232.947368 L 154.453333 230.736842 L 153.28 228.736842 C 152.853333 228.947368 148.053333 234.105263 147.84 233.473684 L 133.76 218 L 134.613333 215.052632 L 125.866667 205.578947 C 122.666667 204.526316 117.653333 204.315789 116.586667 211.263158 C 115.84 212.947368 109.226667 211.473684 109.226667 211.473684 L 105.6 212.315789 L 85.226667 241.052632 L 96.533333 254.631579 L 119.68 225.263158 L 120.426667 216.947368 L 125.226667 222.421053 C 126.826667 222.736842 128.426667 222.526316 129.92 221.894737 L 143.573333 237.157895 L 141.333333 239.473684 L 143.253333 241.684211 L 145.706667 240.105263 L 146.56 241.368421 C 145.493333 242.105263 144.533333 242.736842 143.466667 243.473684 C 141.653333 242.315789 139.946667 240.842105 139.946667 238.526316 L 132.266667 244.947368 L 132.053333 246.105263 L 109.12 265.052632 L 107.093333 265.368421 L 106.56 271.368421 L 121.493333 259.052632 L 121.493333 257.157895 L 122.986667 258.526316 L 134.613333 249.157895 C 134.613333 249.157895 135.36 250.210526 135.146667 250.210526 C 134.826667 250.210526 124.8 259.473684 124.8 259.473684 L 124.586667 260.526316 L 122.773333 262.105263 L 121.813333 261.263158 L 107.84 273.684211 L 105.813333 273.684211 L 98.133333 281.368421 C 96.106667 281.578947 94.4 281.789474 92.693333 282.947368 Z M 78.933333 295.052632 " transform="matrix(0.0366211,0,0,0.0371094,0,0)"/>
</g>
</svg>

<svg xmlns="http://www.w3.org/2000/svg" width="25" height="px" viewBox="0 0 25 19"><path d="M0 0h28.125v5.938H0Zm0 0" style="stroke:none;fill-rule:evenodd;fill:#009a00;fill-opacity:1"/><path d="M0 5.938h28.125v.593H0Zm0 0" style="stroke:none;fill-rule:evenodd;fill:#fff;fill-opacity:1"/><path d="M0 6.531h28.125v5.938H0Zm0 0" style="stroke:none;fill-rule:evenodd;fill:#000001;fill-opacity:1"/><path d="M0 12.469h28.125v.594H0Zm0 0" style="stroke:none;fill-rule:evenodd;fill:#fff;fill-opacity:1"/><path d="M0 13.063h28.125V19H0Zm0 0" style="stroke:none;fill-rule:evenodd;fill:#ffca00;fill-opacity:1"/><path d="M0 0v19l12.305-9.5Zm0 0" style="stroke:none;fill-rule:evenodd;fill:red;fill-opacity:1"/><path d="m7.27 12.36-1.875-1.395-1.875 1.394.73-2.238-1.887-1.379 2.325.008.707-2.242.71 2.246 2.325-.012-1.887 1.38Zm0 0" style="stroke:none;fill-rule:evenodd;fill:#ffca00;fill-opacity:1"/><path d="M102.827 290.947h37.013c2.987 3.264 9.493 4.632 15.787 0 11.626-6.42 34.026 0 34.026 0l4.374-4.736-10.774-35.264-3.84-4.105s-8.32-5.053-24-3.368c-15.68 1.684-21.226-.527-21.226-.527s-13.654 1.685-17.6 3.685l-4.374 4.315Zm0 0" style="fill-rule:evenodd;fill:#fff;fill-opacity:1;stroke-width:1.1;stroke-linecap:round;stroke-linejoin:round;stroke:#000;stroke-opacity:1;stroke-miterlimit:4" transform="scale(.03662 .0371)"/><path d="M110.293 281.79s35.2-4.422 45.44 9.157c-5.76 4-10.88 4.21-16.213.21.747-1.473 12.587-13.789 42.667-9.683" style="fill:none;stroke-width:1.1;stroke-linecap:round;stroke-linejoin:round;stroke:#000;stroke-opacity:1;stroke-miterlimit:4" transform="scale(.03662 .0371)"/><path d="m148.053 246.632-.32 38.736m31.68-38.315L186.027 278" style="fill:none;stroke-width:1.2;stroke-linecap:butt;stroke-linejoin:miter;stroke:#000;stroke-opacity:1;stroke-miterlimit:4" transform="scale(.03662 .0371)"/><path d="m117.013 246.632-3.733 16" style="fill:none;stroke-width:1.1;stroke-linecap:round;stroke-linejoin:round;stroke:#000;stroke-opacity:1;stroke-miterlimit:4" transform="scale(.03662 .0371)"/><path d="m78.933 295.053 8.534 10.21c1.066.632 2.026.632 2.986 0l12.8-15.368 5.334-6.737c.853-1.053 1.173-2 1.066-2.947L120 270.947l2.24.106c-1.067-.106-1.707-.632-1.067-1.79l2.454-1.79 1.813 2.316s-2.667 3.369-2.987 3.369h-2.773l-5.333 4.947 2.346 2 3.52 9.79 4.374-3.053-2.774-10 6.08-6.737-2.24-3.579 1.6-2s21.227 13.369 29.547 9.79c.213 0 .533-9.58.533-9.58s-22.186-2.315-22.72-6.736 5.014-5.053 5.014-5.053l-2.454-3.158.534-1.789 3.946 4.842 8.64-7.474L201.813 304c2.774-1.053 3.414-1.79 3.627-4.632l-50.453-57.894 3.84-4.106c.746-.842.96-1.157.96-2.526l5.973-5.158c1.6.527 2.987 1.58 3.84 3.053l16.427-13.79c.426.421 1.706.842 2.56.421l26.88-25.894-29.227 20.737-1.067-.737c0-.842 1.067-.948 0-2.527-1.173-1.473-2.88 1.264-3.093 1.264s-4.267-1.369-5.227-3.158l-.106 4.631-7.574 7.053-5.653-.316-8.213 8-.96 2.947 1.28 2.737s-4.374 3.79-4.374 3.58c0-.317-.96-1.159-1.066-1.264l3.84-3.474.426-2.21-1.173-2c-.427.21-5.227 5.368-5.44 4.737L133.76 218l.853-2.947-8.746-9.474c-3.2-1.053-8.214-1.263-9.28 5.684-.747 1.684-7.36.21-7.36.21l-3.627.843-20.373 28.737 11.306 13.579 23.147-29.369.747-8.316 4.8 5.474c1.6.316 3.2.105 4.693-.526l13.653 15.263-2.24 2.316 1.92 2.21 2.454-1.579.853 1.263c-1.067.737-2.027 1.369-3.093 2.106-1.814-1.158-3.52-2.632-3.52-4.948l-7.68 6.421-.214 1.158-22.933 18.948-2.027.315-.533 6 14.933-12.315v-1.895l1.494 1.368 11.626-9.368s.747 1.053.534 1.053c-.32 0-10.347 9.263-10.347 9.263l-.213 1.052-1.814 1.58-.96-.843-13.973 12.421h-2.027l-7.68 7.684c-2.026.21-3.733.421-5.44 1.58Zm0 0" style="fill-rule:evenodd;fill:#000;fill-opacity:1;stroke-width:1.1;stroke-linecap:round;stroke-linejoin:round;stroke:#000;stroke-opacity:1;stroke-miterlimit:4" transform="scale(.03662 .0371)"/></svg>
